images/267677.svg

<?xml version="1.0" encoding="UTF-8"?>
<svg xmlns="http://www.w3.org/2000/svg" xmlns:xlink="http://www.w3.org/1999/xlink" width="300pt" height="300pt" viewBox="0 0 300 300" version="1.1">
<defs>
<g>
<symbol overflow="visible" id="glyph0-0">
<path style="stroke:none;" d="M 0.546875 1.9375 L 0.546875 -7.75 L 6.046875 -7.75 L 6.046875 1.9375 Z M 1.171875 1.328125 L 5.4375 1.328125 L 5.4375 -7.140625 L 1.171875 -7.140625 Z M 1.171875 1.328125 "/>
</symbol>
<symbol overflow="visible" id="glyph0-1">
<path style="stroke:none;" d="M 1.078125 -8.015625 L 2.171875 -8.015625 L 2.171875 -4.734375 L 6.109375 -4.734375 L 6.109375 -8.015625 L 7.1875 -8.015625 L 7.1875 0 L 6.109375 0 L 6.109375 -3.8125 L 2.171875 -3.8125 L 2.171875 0 L 1.078125 0 Z M 1.078125 -8.015625 "/>
</symbol>
<symbol overflow="visible" id="glyph0-2">
<path style="stroke:none;" d="M 4.328125 -7.28125 C 3.546875 -7.28125 2.921875 -6.984375 2.453125 -6.390625 C 1.992188 -5.804688 1.765625 -5.007812 1.765625 -4 C 1.765625 -2.988281 1.992188 -2.1875 2.453125 -1.59375 C 2.921875 -1.007812 3.546875 -0.71875 4.328125 -0.71875 C 5.117188 -0.71875 5.742188 -1.007812 6.203125 -1.59375 C 6.660156 -2.1875 6.890625 -2.988281 6.890625 -4 C 6.890625 -5.007812 6.660156 -5.804688 6.203125 -6.390625 C 5.742188 -6.984375 5.117188 -7.28125 4.328125 -7.28125 Z M 4.328125 -8.171875 C 5.453125 -8.171875 6.351562 -7.789062 7.03125 -7.03125 C 7.707031 -6.28125 8.046875 -5.269531 8.046875 -4 C 8.046875 -2.738281 7.707031 -1.726562 7.03125 -0.96875 C 6.351562 -0.21875 5.453125 0.15625 4.328125 0.15625 C 3.203125 0.15625 2.300781 -0.21875 1.625 -0.96875 C 0.957031 -1.71875 0.625 -2.726562 0.625 -4 C 0.625 -5.269531 0.957031 -6.28125 1.625 -7.03125 C 2.300781 -7.789062 3.203125 -8.171875 4.328125 -8.171875 Z M 4.328125 -8.171875 "/>
</symbol>
<symbol overflow="visible" id="glyph0-3">
<path style="stroke:none;" d="M 1.078125 -8.015625 L 2.546875 -8.015625 L 6.09375 -1.3125 L 6.09375 -8.015625 L 7.15625 -8.015625 L 7.15625 0 L 5.6875 0 L 2.125 -6.703125 L 2.125 0 L 1.078125 0 Z M 1.078125 -8.015625 "/>
</symbol>
</g>
</defs>
<g id="surface10805">
<rect x="0" y="0" width="300" height="300" style="fill:rgb(100%,100%,100%);fill-opacity:1;stroke:none;"/>
<path style="fill:none;stroke-width:1.2;stroke-linecap:butt;stroke-linejoin:miter;stroke:rgb(100%,0%,0%);stroke-opacity:1;stroke-miterlimit:10;" d="M 180.648438 137.652344 L 182.824219 124.257812 "/>
<path style="fill:none;stroke-width:1.2;stroke-linecap:butt;stroke-linejoin:miter;stroke:rgb(0%,0%,0%);stroke-opacity:1;stroke-miterlimit:10;" d="M 182.824219 124.257812 L 185 110.863281 "/>
<path style=" stroke:none;fill-rule:nonzero;fill:rgb(100%,100%,100%);fill-opacity:1;" d="M 172.648438 131.152344 L 189.648438 131.152344 L 189.648438 144.152344 L 172.648438 144.152344 Z M 172.648438 131.152344 "/>
<g style="fill:rgb(100%,0%,0%);fill-opacity:1;">
  <use xlink:href="#glyph0-1" x="172.648438" y="141.053711"/>
  <use xlink:href="#glyph0-2" x="180.672852" y="141.053711"/>
</g>
<path style="fill:none;stroke-width:1;stroke-linecap:butt;stroke-linejoin:miter;stroke:rgb(0%,0%,0%);stroke-opacity:1;stroke-miterlimit:10;" d="M 163.972656 93.703125 L 163.972656 93.703125 M 165.933594 95.972656 L 166.59375 95.167969 M 167.890625 98.246094 L 169.210938 96.632812 M 169.851562 100.519531 L 171.828125 98.09375 M 171.808594 102.789062 L 174.445312 99.558594 M 173.769531 105.0625 L 177.066406 101.023438 M 175.726562 107.335938 L 179.683594 102.488281 M 177.6875 109.605469 L 182.300781 103.953125 M 179.644531 111.878906 L 184.921875 105.417969 M 181.605469 114.152344 L 187.539062 106.878906 M 181.96875 114.574219 L 188.027344 107.152344 "/>
<path style="fill:none;stroke-width:1.2;stroke-linecap:butt;stroke-linejoin:miter;stroke:rgb(0%,0%,0%);stroke-opacity:1;stroke-miterlimit:10;" d="M 185 110.863281 L 210.375 101.234375 "/>
<path style="fill:none;stroke-width:1.2;stroke-linecap:butt;stroke-linejoin:miter;stroke:rgb(0%,0%,0%);stroke-opacity:1;stroke-miterlimit:10;" d="M 163.972656 93.703125 L 151.285156 98.515625 "/>
<path style="fill:none;stroke-width:1.2;stroke-linecap:butt;stroke-linejoin:miter;stroke:rgb(0%,0%,100%);stroke-opacity:1;stroke-miterlimit:10;" d="M 151.285156 98.515625 L 138.597656 103.332031 "/>
<path style="fill:none;stroke-width:1.2;stroke-linecap:butt;stroke-linejoin:miter;stroke:rgb(0%,0%,0%);stroke-opacity:1;stroke-miterlimit:10;" d="M 163.972656 93.703125 L 168.324219 66.914062 "/>
<path style="fill:none;stroke-width:1.2;stroke-linecap:butt;stroke-linejoin:miter;stroke:rgb(0%,0%,100%);stroke-opacity:1;stroke-miterlimit:10;" d="M 138.597656 103.332031 L 136.425781 116.726562 "/>
<path style="fill:none;stroke-width:1.2;stroke-linecap:butt;stroke-linejoin:miter;stroke:rgb(0%,0%,0%);stroke-opacity:1;stroke-miterlimit:10;" d="M 136.425781 116.726562 L 134.25 130.117188 "/>
<path style=" stroke:none;fill-rule:nonzero;fill:rgb(100%,100%,100%);fill-opacity:1;" d="M 130.597656 96.832031 L 147.597656 96.832031 L 147.597656 109.832031 L 130.597656 109.832031 Z M 130.597656 96.832031 "/>
<g style="fill:rgb(0%,0%,100%);fill-opacity:1;">
  <use xlink:href="#glyph0-3" x="130.597656" y="106.733398"/>
  <use xlink:href="#glyph0-1" x="138.581055" y="106.733398"/>
</g>
<path style="fill:none;stroke-width:1.2;stroke-linecap:butt;stroke-linejoin:miter;stroke:rgb(0%,0%,0%);stroke-opacity:1;stroke-miterlimit:10;" d="M 134.25 130.117188 L 144.761719 138.699219 "/>
<path style="fill:none;stroke-width:1.2;stroke-linecap:butt;stroke-linejoin:miter;stroke:rgb(0%,0%,100%);stroke-opacity:1;stroke-miterlimit:10;" d="M 144.761719 138.699219 L 155.273438 147.28125 "/>
<path style="fill:none;stroke-width:1.2;stroke-linecap:butt;stroke-linejoin:miter;stroke:rgb(0%,0%,0%);stroke-opacity:1;stroke-miterlimit:10;" d="M 132.3125 136.78125 L 140.722656 143.648438 "/>
<path style="fill:none;stroke-width:1.2;stroke-linecap:butt;stroke-linejoin:miter;stroke:rgb(0%,0%,100%);stroke-opacity:1;stroke-miterlimit:10;" d="M 140.722656 143.648438 L 149.132812 150.511719 "/>
<path style="fill:none;stroke-width:1.2;stroke-linecap:butt;stroke-linejoin:miter;stroke:rgb(0%,0%,100%);stroke-opacity:1;stroke-miterlimit:10;" d="M 108.875 139.746094 L 121.5625 134.933594 "/>
<path style="fill:none;stroke-width:1.2;stroke-linecap:butt;stroke-linejoin:miter;stroke:rgb(0%,0%,0%);stroke-opacity:1;stroke-miterlimit:10;" d="M 121.5625 134.933594 L 134.25 130.117188 "/>
<path style="fill:none;stroke-width:1.2;stroke-linecap:butt;stroke-linejoin:miter;stroke:rgb(0%,0%,100%);stroke-opacity:1;stroke-miterlimit:10;" d="M 155.273438 147.28125 L 153.101562 160.675781 "/>
<path style="fill:none;stroke-width:1.2;stroke-linecap:butt;stroke-linejoin:miter;stroke:rgb(0%,0%,0%);stroke-opacity:1;stroke-miterlimit:10;" d="M 153.101562 160.675781 L 150.925781 174.070312 "/>
<path style=" stroke:none;fill-rule:nonzero;fill:rgb(100%,100%,100%);fill-opacity:1;" d="M 151.273438 140.78125 L 159.273438 140.78125 L 159.273438 153.78125 L 151.273438 153.78125 Z M 151.273438 140.78125 "/>
<g style="fill:rgb(0%,0%,100%);fill-opacity:1;">
  <use xlink:href="#glyph0-3" x="151.273438" y="150.682617"/>
</g>
<path style="fill:none;stroke-width:1.2;stroke-linecap:butt;stroke-linejoin:miter;stroke:rgb(0%,0%,0%);stroke-opacity:1;stroke-miterlimit:10;" d="M 150.925781 174.070312 L 161.4375 182.648438 "/>
<path style="fill:none;stroke-width:1.2;stroke-linecap:butt;stroke-linejoin:miter;stroke:rgb(0%,0%,100%);stroke-opacity:1;stroke-miterlimit:10;" d="M 161.4375 182.648438 L 171.949219 191.230469 "/>
<path style="fill:none;stroke-width:1.2;stroke-linecap:butt;stroke-linejoin:miter;stroke:rgb(0%,0%,0%);stroke-opacity:1;stroke-miterlimit:10;" d="M 150.925781 174.070312 L 125.550781 183.695312 "/>
<path style="fill:none;stroke-width:1.2;stroke-linecap:butt;stroke-linejoin:miter;stroke:rgb(0%,0%,0%);stroke-opacity:1;stroke-miterlimit:10;" d="M 146.121094 169.0625 L 125.824219 176.765625 "/>
<path style="fill:none;stroke-width:1.2;stroke-linecap:butt;stroke-linejoin:miter;stroke:rgb(0%,0%,100%);stroke-opacity:1;stroke-miterlimit:10;" d="M 171.949219 191.230469 L 184.636719 186.417969 "/>
<path style="fill:none;stroke-width:1.2;stroke-linecap:butt;stroke-linejoin:miter;stroke:rgb(0%,0%,0%);stroke-opacity:1;stroke-miterlimit:10;" d="M 184.636719 186.417969 L 197.324219 181.601562 "/>
<path style=" stroke:none;fill-rule:nonzero;fill:rgb(100%,100%,100%);fill-opacity:1;" d="M 163.949219 184.730469 L 180.949219 184.730469 L 180.949219 197.730469 L 163.949219 197.730469 Z M 163.949219 184.730469 "/>
<g style="fill:rgb(0%,0%,100%);fill-opacity:1;">
  <use xlink:href="#glyph0-3" x="163.949219" y="194.631836"/>
  <use xlink:href="#glyph0-1" x="171.932617" y="194.631836"/>
</g>
<path style="fill:none;stroke-width:1.2;stroke-linecap:butt;stroke-linejoin:miter;stroke:rgb(0%,0%,0%);stroke-opacity:1;stroke-miterlimit:10;" d="M 197.324219 181.601562 L 218.351562 198.765625 "/>
<path style="fill:none;stroke-width:1.2;stroke-linecap:butt;stroke-linejoin:miter;stroke:rgb(0%,0%,0%);stroke-opacity:1;stroke-miterlimit:10;" d="M 218.351562 198.765625 L 214 225.554688 "/>
<path style="fill:none;stroke-width:1.2;stroke-linecap:butt;stroke-linejoin:miter;stroke:rgb(0%,0%,0%);stroke-opacity:1;stroke-miterlimit:10;" d="M 224.21875 202.464844 L 220.738281 223.898438 "/>
<path style="fill:none;stroke-width:1.2;stroke-linecap:butt;stroke-linejoin:miter;stroke:rgb(0%,0%,0%);stroke-opacity:1;stroke-miterlimit:10;" d="M 243.726562 189.136719 L 218.351562 198.765625 "/>
<path style="fill:none;stroke-width:1.2;stroke-linecap:butt;stroke-linejoin:miter;stroke:rgb(0%,0%,0%);stroke-opacity:1;stroke-miterlimit:10;" d="M 214 225.554688 L 235.027344 242.714844 "/>
<path style="fill:none;stroke-width:1.2;stroke-linecap:butt;stroke-linejoin:miter;stroke:rgb(0%,0%,0%);stroke-opacity:1;stroke-miterlimit:10;" d="M 235.027344 242.714844 L 260.402344 233.085938 "/>
<path style="fill:none;stroke-width:1.2;stroke-linecap:butt;stroke-linejoin:miter;stroke:rgb(0%,0%,0%);stroke-opacity:1;stroke-miterlimit:10;" d="M 235.296875 235.78125 L 255.597656 228.078125 "/>
<path style="fill:none;stroke-width:1.2;stroke-linecap:butt;stroke-linejoin:miter;stroke:rgb(0%,0%,0%);stroke-opacity:1;stroke-miterlimit:10;" d="M 260.402344 233.085938 L 262.574219 219.691406 "/>
<path style="fill:none;stroke-width:1.2;stroke-linecap:butt;stroke-linejoin:miter;stroke:rgb(0%,0%,100%);stroke-opacity:1;stroke-miterlimit:10;" d="M 262.574219 219.691406 L 264.75 206.296875 "/>
<path style="fill:none;stroke-width:1.2;stroke-linecap:butt;stroke-linejoin:miter;stroke:rgb(0%,0%,100%);stroke-opacity:1;stroke-miterlimit:10;" d="M 264.75 206.296875 L 254.238281 197.71875 "/>
<path style="fill:none;stroke-width:1.2;stroke-linecap:butt;stroke-linejoin:miter;stroke:rgb(0%,0%,0%);stroke-opacity:1;stroke-miterlimit:10;" d="M 254.238281 197.71875 L 243.726562 189.136719 "/>
<path style="fill:none;stroke-width:1.2;stroke-linecap:butt;stroke-linejoin:miter;stroke:rgb(0%,0%,100%);stroke-opacity:1;stroke-miterlimit:10;" d="M 258.609375 209.527344 L 250.199219 202.664062 "/>
<path style="fill:none;stroke-width:1.2;stroke-linecap:butt;stroke-linejoin:miter;stroke:rgb(0%,0%,0%);stroke-opacity:1;stroke-miterlimit:10;" d="M 250.199219 202.664062 L 241.789062 195.800781 "/>
<path style=" stroke:none;fill-rule:nonzero;fill:rgb(100%,100%,100%);fill-opacity:1;" d="M 260.75 199.796875 L 268.75 199.796875 L 268.75 212.796875 L 260.75 212.796875 Z M 260.75 199.796875 "/>
<g style="fill:rgb(0%,0%,100%);fill-opacity:1;">
  <use xlink:href="#glyph0-3" x="260.75" y="209.698242"/>
</g>
<path style="fill:none;stroke-width:1.2;stroke-linecap:butt;stroke-linejoin:miter;stroke:rgb(0%,0%,0%);stroke-opacity:1;stroke-miterlimit:10;" d="M 125.550781 183.695312 L 120.636719 196.347656 "/>
<path style="fill:none;stroke-width:1.2;stroke-linecap:butt;stroke-linejoin:miter;stroke:rgb(0%,0%,100%);stroke-opacity:1;stroke-miterlimit:10;" d="M 120.636719 196.347656 L 115.726562 208.996094 "/>
<path style="fill:none;stroke-width:1.2;stroke-linecap:butt;stroke-linejoin:miter;stroke:rgb(0%,0%,0%);stroke-opacity:1;stroke-miterlimit:10;" d="M 104.523438 166.535156 L 125.550781 183.695312 "/>
<path style="fill:none;stroke-width:1.2;stroke-linecap:butt;stroke-linejoin:miter;stroke:rgb(0%,0%,100%);stroke-opacity:1;stroke-miterlimit:10;" d="M 115.726562 208.996094 L 102.179688 208.234375 "/>
<path style="fill:none;stroke-width:1.2;stroke-linecap:butt;stroke-linejoin:miter;stroke:rgb(0%,0%,0%);stroke-opacity:1;stroke-miterlimit:10;" d="M 102.179688 208.234375 L 88.628906 207.472656 "/>
<path style="fill:none;stroke-width:1.2;stroke-linecap:butt;stroke-linejoin:miter;stroke:rgb(0%,0%,100%);stroke-opacity:1;stroke-miterlimit:10;" d="M 113.375 202.46875 L 102.535156 201.859375 "/>
<path style="fill:none;stroke-width:1.2;stroke-linecap:butt;stroke-linejoin:miter;stroke:rgb(0%,0%,0%);stroke-opacity:1;stroke-miterlimit:10;" d="M 102.535156 201.859375 L 91.699219 201.246094 "/>
<path style=" stroke:none;fill-rule:nonzero;fill:rgb(100%,100%,100%);fill-opacity:1;" d="M 111.726562 202.496094 L 119.726562 202.496094 L 119.726562 215.496094 L 111.726562 215.496094 Z M 111.726562 202.496094 "/>
<g style="fill:rgb(0%,0%,100%);fill-opacity:1;">
  <use xlink:href="#glyph0-3" x="111.726562" y="212.397461"/>
</g>
<path style="fill:none;stroke-width:1.2;stroke-linecap:butt;stroke-linejoin:miter;stroke:rgb(0%,0%,0%);stroke-opacity:1;stroke-miterlimit:10;" d="M 88.628906 207.472656 L 85.167969 194.351562 "/>
<path style="fill:none;stroke-width:1.2;stroke-linecap:butt;stroke-linejoin:miter;stroke:rgb(0%,0%,100%);stroke-opacity:1;stroke-miterlimit:10;" d="M 85.167969 194.351562 L 81.707031 181.230469 "/>
<path style="fill:none;stroke-width:1.2;stroke-linecap:butt;stroke-linejoin:miter;stroke:rgb(0%,0%,100%);stroke-opacity:1;stroke-miterlimit:10;" d="M 81.707031 181.230469 L 93.117188 173.882812 "/>
<path style="fill:none;stroke-width:1.2;stroke-linecap:butt;stroke-linejoin:miter;stroke:rgb(0%,0%,0%);stroke-opacity:1;stroke-miterlimit:10;" d="M 93.117188 173.882812 L 104.523438 166.535156 "/>
<path style="fill:none;stroke-width:1.2;stroke-linecap:butt;stroke-linejoin:miter;stroke:rgb(0%,0%,100%);stroke-opacity:1;stroke-miterlimit:10;" d="M 81.707031 181.230469 L 69.058594 176.316406 "/>
<path style="fill:none;stroke-width:1.2;stroke-linecap:butt;stroke-linejoin:miter;stroke:rgb(0%,0%,0%);stroke-opacity:1;stroke-miterlimit:10;" d="M 69.058594 176.316406 L 56.40625 171.40625 "/>
<path style=" stroke:none;fill-rule:nonzero;fill:rgb(100%,100%,100%);fill-opacity:1;" d="M 77.707031 174.730469 L 85.707031 174.730469 L 85.707031 187.730469 L 77.707031 187.730469 Z M 77.707031 174.730469 "/>
<g style="fill:rgb(0%,0%,100%);fill-opacity:1;">
  <use xlink:href="#glyph0-3" x="77.707031" y="184.631836"/>
</g>
<path style="fill:none;stroke-width:1.2;stroke-linecap:butt;stroke-linejoin:miter;stroke:rgb(0%,0%,0%);stroke-opacity:1;stroke-miterlimit:10;" d="M 104.523438 166.535156 L 106.699219 153.140625 "/>
<path style="fill:none;stroke-width:1.2;stroke-linecap:butt;stroke-linejoin:miter;stroke:rgb(0%,0%,100%);stroke-opacity:1;stroke-miterlimit:10;" d="M 106.699219 153.140625 L 108.875 139.746094 "/>
<path style="fill:none;stroke-width:1.2;stroke-linecap:butt;stroke-linejoin:miter;stroke:rgb(0%,0%,0%);stroke-opacity:1;stroke-miterlimit:10;" d="M 111.261719 164.878906 L 113.003906 154.164062 "/>
<path style="fill:none;stroke-width:1.2;stroke-linecap:butt;stroke-linejoin:miter;stroke:rgb(0%,0%,100%);stroke-opacity:1;stroke-miterlimit:10;" d="M 113.003906 154.164062 L 114.742188 143.449219 "/>
<path style=" stroke:none;fill-rule:nonzero;fill:rgb(100%,100%,100%);fill-opacity:1;" d="M 104.875 133.246094 L 112.875 133.246094 L 112.875 146.246094 L 104.875 146.246094 Z M 104.875 133.246094 "/>
<g style="fill:rgb(0%,0%,100%);fill-opacity:1;">
  <use xlink:href="#glyph0-3" x="104.875" y="143.147461"/>
</g>
<path style="fill:none;stroke-width:1.2;stroke-linecap:butt;stroke-linejoin:miter;stroke:rgb(0%,0%,0%);stroke-opacity:1;stroke-miterlimit:10;" d="M 56.40625 171.40625 L 35.25 188.402344 "/>
<path style="fill:none;stroke-width:1.2;stroke-linecap:butt;stroke-linejoin:miter;stroke:rgb(0%,0%,0%);stroke-opacity:1;stroke-miterlimit:10;" d="M 56.40625 171.40625 L 52.265625 144.582031 "/>
<path style="fill:none;stroke-width:1.2;stroke-linecap:butt;stroke-linejoin:miter;stroke:rgb(0%,0%,0%);stroke-opacity:1;stroke-miterlimit:10;" d="M 168.324219 66.914062 L 193.699219 57.285156 "/>
<path style="fill:none;stroke-width:1.2;stroke-linecap:butt;stroke-linejoin:miter;stroke:rgb(0%,0%,0%);stroke-opacity:1;stroke-miterlimit:10;" d="M 210.375 101.234375 L 220 126.609375 "/>
<path style="fill:none;stroke-width:1.2;stroke-linecap:butt;stroke-linejoin:miter;stroke:rgb(0%,0%,0%);stroke-opacity:1;stroke-miterlimit:10;" d="M 210.375 101.234375 L 200.746094 75.859375 "/>
<path style="fill:none;stroke-width:1.2;stroke-linecap:butt;stroke-linejoin:miter;stroke:rgb(0%,0%,0%);stroke-opacity:1;stroke-miterlimit:10;" d="M 210.375 101.234375 L 235.75 91.609375 "/>
</g>
</svg>

<svg xmlns="http://www.w3.org/2000/svg" xmlns:xlink="http://www.w3.org/1999/xlink" width="300pt" height="300pt" viewBox="0 0 300 300"><defs><symbol overflow="visible"><path d="M.547 1.938V-7.75h5.5v9.688zm.625-.61h4.266v-8.47H1.171zm0 0"/></symbol><symbol overflow="visible" id="a"><path d="M1.078-8.016h1.094v3.282H6.11v-3.282h1.077V0H6.11v-3.813H2.17V0H1.078zm0 0"/></symbol><symbol overflow="visible" id="b"><path d="M4.328-7.28c-.78 0-1.406.296-1.875.89-.46.585-.687 1.382-.687 2.39 0 1.012.226 1.813.687 2.406.47.586 1.094.875 1.875.875.79 0 1.414-.288 1.875-.874.457-.593.688-1.394.688-2.406 0-1.008-.23-1.805-.687-2.39-.46-.594-1.086-.89-1.875-.89zm0-.892c1.125 0 2.024.383 2.703 1.14C7.708-6.28 8.048-5.27 8.048-4c0 1.262-.34 2.273-1.016 3.03C6.353-.22 5.454.157 4.33.157S2.3-.22 1.625-.97c-.668-.75-1-1.757-1-3.03 0-1.27.332-2.28 1-3.03.676-.76 1.578-1.142 2.703-1.142zm0 0"/></symbol><symbol overflow="visible" id="c"><path d="M1.078-8.016h1.47l3.546 6.704v-6.704h1.062V0H5.688L2.124-6.703V0H1.078zm0 0"/></symbol></defs><g><path fill="#fff" d="M0 0h300v300H0z"/><path d="M180.648 137.652l2.176-13.394" stroke-width="1.2" stroke="#f00" stroke-miterlimit="10" fill="none"/><path d="M182.824 124.258L185 110.863" stroke-width="1.2" stroke="#000" stroke-miterlimit="10" fill="none"/><path d="M172.648 131.152h17v13h-17zm0 0" fill="#fff"/><g fill="#f00"><use xlink:href="#a" x="172.648" y="141.054"/><use xlink:href="#b" x="180.673" y="141.054"/></g><path d="M163.973 93.703m1.96 2.27l.66-.805m1.298 3.078l1.32-1.613m.642 3.887l1.976-2.426m-.02 4.695l2.637-3.23m-.675 5.502l3.296-4.04m-1.34 6.314l3.958-4.848m-1.996 7.117l4.613-5.652m-2.655 7.926l5.277-6.462m-3.317 8.734l5.934-7.273m-5.57 7.694l6.057-7.422" stroke="#000" stroke-miterlimit="10" fill="none"/><path d="M185 110.863l25.375-9.63M163.973 93.703l-12.688 4.813" stroke-width="1.2" stroke="#000" stroke-miterlimit="10" fill="none"/><path d="M151.285 98.516l-12.687 4.816" stroke-width="1.2" stroke="#00f" stroke-miterlimit="10" fill="none"/><path d="M163.973 93.703l4.35-26.79" stroke-width="1.2" stroke="#000" stroke-miterlimit="10" fill="none"/><path d="M138.598 103.332l-2.172 13.395" stroke-width="1.2" stroke="#00f" stroke-miterlimit="10" fill="none"/><path d="M136.426 116.727l-2.176 13.39" stroke-width="1.2" stroke="#000" stroke-miterlimit="10" fill="none"/><path d="M130.598 96.832h17v13h-17zm0 0" fill="#fff"/><g fill="#00f"><use xlink:href="#c" x="130.598" y="106.733"/><use xlink:href="#a" x="138.581" y="106.733"/></g><path d="M134.25 130.117l10.512 8.582" stroke-width="1.2" stroke="#000" stroke-miterlimit="10" fill="none"/><path d="M144.762 138.7l10.51 8.58" stroke-width="1.2" stroke="#00f" stroke-miterlimit="10" fill="none"/><path d="M132.313 136.78l8.41 6.868" stroke-width="1.2" stroke="#000" stroke-miterlimit="10" fill="none"/><path d="M140.723 143.648l8.41 6.864M108.875 139.746l12.688-4.812" stroke-width="1.2" stroke="#00f" stroke-miterlimit="10" fill="none"/><path d="M121.563 134.934l12.687-4.817" stroke-width="1.2" stroke="#000" stroke-miterlimit="10" fill="none"/><path d="M155.273 147.28l-2.17 13.396" stroke-width="1.2" stroke="#00f" stroke-miterlimit="10" fill="none"/><path d="M153.102 160.676l-2.176 13.394" stroke-width="1.2" stroke="#000" stroke-miterlimit="10" fill="none"/><path d="M151.273 140.78h8v13h-8zm0 0" fill="#fff"/><use xlink:href="#c" x="151.273" y="150.683" fill="#00f"/><path d="M150.926 174.07l10.512 8.578" stroke-width="1.2" stroke="#000" stroke-miterlimit="10" fill="none"/><path d="M161.438 182.648l10.51 8.582" stroke-width="1.2" stroke="#00f" stroke-miterlimit="10" fill="none"/><path d="M150.926 174.07l-25.375 9.625M146.12 169.063l-20.296 7.703" stroke-width="1.2" stroke="#000" stroke-miterlimit="10" fill="none"/><path d="M171.95 191.23l12.687-4.812" stroke-width="1.2" stroke="#00f" stroke-miterlimit="10" fill="none"/><path d="M184.637 186.418l12.687-4.816" stroke-width="1.2" stroke="#000" stroke-miterlimit="10" fill="none"/><path d="M163.95 184.73h17v13h-17zm0 0" fill="#fff"/><g fill="#00f"><use xlink:href="#c" x="163.949" y="194.632"/><use xlink:href="#a" x="171.933" y="194.632"/></g><path d="M197.324 181.602l21.028 17.164M218.352 198.766L214 225.556M224.22 202.465l-3.482 21.433M243.727 189.137l-25.375 9.63M214 225.555l21.027 17.16M235.027 242.715l25.375-9.63M235.297 235.78l20.3-7.702M260.402 233.086l2.172-13.395" stroke-width="1.2" stroke="#000" stroke-miterlimit="10" fill="none"/><path d="M262.574 219.69l2.176-13.393M264.75 206.297l-10.512-8.578" stroke-width="1.2" stroke="#00f" stroke-miterlimit="10" fill="none"/><path d="M254.238 197.72l-10.51-8.583" stroke-width="1.2" stroke="#000" stroke-miterlimit="10" fill="none"/><path d="M258.61 209.527l-8.41-6.863" stroke-width="1.2" stroke="#00f" stroke-miterlimit="10" fill="none"/><path d="M250.2 202.664l-8.41-6.863" stroke-width="1.2" stroke="#000" stroke-miterlimit="10" fill="none"/><path d="M260.75 199.797h8v13h-8zm0 0" fill="#fff"/><use xlink:href="#c" x="260.75" y="209.698" fill="#00f"/><path d="M125.55 183.695l-4.913 12.653" stroke-width="1.2" stroke="#000" stroke-miterlimit="10" fill="none"/><path d="M120.637 196.348l-4.91 12.648" stroke-width="1.2" stroke="#00f" stroke-miterlimit="10" fill="none"/><path d="M104.523 166.535l21.028 17.16" stroke-width="1.2" stroke="#000" stroke-miterlimit="10" fill="none"/><path d="M115.727 208.996l-13.547-.762" stroke-width="1.2" stroke="#00f" stroke-miterlimit="10" fill="none"/><path d="M102.18 208.234l-13.55-.76" stroke-width="1.2" stroke="#000" stroke-miterlimit="10" fill="none"/><path d="M113.375 202.47l-10.84-.61" stroke-width="1.2" stroke="#00f" stroke-miterlimit="10" fill="none"/><path d="M102.535 201.86l-10.836-.614" stroke-width="1.2" stroke="#000" stroke-miterlimit="10" fill="none"/><path d="M111.727 202.496h8v13h-8zm0 0" fill="#fff"/><use xlink:href="#c" x="111.727" y="212.397" fill="#00f"/><path d="M88.63 207.473l-3.462-13.12" stroke-width="1.2" stroke="#000" stroke-miterlimit="10" fill="none"/><path d="M85.168 194.352l-3.46-13.122M81.707 181.23l11.41-7.347" stroke-width="1.2" stroke="#00f" stroke-miterlimit="10" fill="none"/><path d="M93.117 173.883l11.406-7.348" stroke-width="1.2" stroke="#000" stroke-miterlimit="10" fill="none"/><path d="M81.707 181.23l-12.648-4.914" stroke-width="1.2" stroke="#00f" stroke-miterlimit="10" fill="none"/><path d="M69.06 176.316l-12.654-4.91" stroke-width="1.2" stroke="#000" stroke-miterlimit="10" fill="none"/><path d="M77.707 174.73h8v13h-8zm0 0" fill="#fff"/><use xlink:href="#c" x="77.707" y="184.632" fill="#00f"/><path d="M104.523 166.535l2.176-13.394" stroke-width="1.2" stroke="#000" stroke-miterlimit="10" fill="none"/><path d="M106.7 153.14l2.175-13.394" stroke-width="1.2" stroke="#00f" stroke-miterlimit="10" fill="none"/><path d="M111.262 164.88l1.742-10.716" stroke-width="1.2" stroke="#000" stroke-miterlimit="10" fill="none"/><path d="M113.004 154.164l1.738-10.715" stroke-width="1.2" stroke="#00f" stroke-miterlimit="10" fill="none"/><path d="M104.875 133.246h8v13h-8zm0 0" fill="#fff"/><use xlink:href="#c" x="104.875" y="143.147" fill="#00f"/><path d="M56.406 171.406L35.25 188.402M56.406 171.406l-4.14-26.824M168.324 66.914l25.375-9.63M210.375 101.234L220 126.61M210.375 101.234l-9.63-25.375M210.375 101.234l25.375-9.625" stroke-width="1.2" stroke="#000" stroke-miterlimit="10" fill="none"/></g></svg>
